icons/square-cross.svg

<svg xmlns="http://www.w3.org/2000/svg" width="24" height="24" viewBox="0 0 24 24">
  <path d="M20,2 C21.1045695,2 22,2.8954305 22,4 L22,20 C22,21.1045695 21.1045695,22 20,22 L4,22 C2.8954305,22 2,21.1045695 2,20 L2,4 C2,2.8954305 2.8954305,2 4,2 L20,2 Z M8.61289944,7.20970461 C8.22060824,6.90467972 7.65337718,6.93240926 7.29289322,7.29289322 C6.90236893,7.68341751 6.90236893,8.31658249 7.29289322,8.70710678 L7.29289322,8.70710678 L10.585,12 L7.29289322,15.2928932 L7.20970461,15.3871006 C6.90467972,15.7793918 6.93240926,16.3466228 7.29289322,16.7071068 C7.68341751,17.0976311 8.31658249,17.0976311 8.70710678,16.7071068 L8.70710678,16.7071068 L12,13.415 L15.2928932,16.7071068 L15.3871006,16.7902954 C15.7793918,17.0953203 16.3466228,17.0675907 16.7071068,16.7071068 C17.0976311,16.3165825 17.0976311,15.6834175 16.7071068,15.2928932 L16.7071068,15.2928932 L13.415,12 L16.7071068,8.70710678 L16.7902954,8.61289944 C17.0953203,8.22060824 17.0675907,7.65337718 16.7071068,7.29289322 C16.3165825,6.90236893 15.6834175,6.90236893 15.2928932,7.29289322 L15.2928932,7.29289322 L12,10.585 L8.70710678,7.29289322 Z"/>
</svg>

<svg xmlns="http://www.w3.org/2000/svg" viewBox="0 0 24 24">
  <path d="M20 2a2 2 0 0 1 2 2v16a2 2 0 0 1-2 2H4a2 2 0 0 1-2-2V4c0-1.1.9-2 2-2h16zM8.61 7.21a1 1 0 0 0-1.32 1.5L10.6 12l-3.3 3.3-.08.09a1 1 0 0 0 1.5 1.32L12 13.4l3.3 3.3.09.08a1 1 0 0 0 1.32-1.5L13.4 12l3.3-3.3.08-.09a1 1 0 0 0-1.5-1.32L12 10.6 8.7 7.3z"/>
</svg>
